alura/assets/api/cursos/bootcamp-datascience-modulo2.svg

<svg width="50" height="50" viewBox="0 0 50 50" fill="none" xmlns="http://www.w3.org/2000/svg">
<path d="M40.5162 16.1924C40.313 15.7859 39.771 15.5826 39.3645 15.7859L35.5704 17.6829L25.8821 12.8726V9.21406C25.8821 8.7398 25.4756 8.3333 25.0013 8.3333C24.5271 8.3333 24.1205 8.7398 24.1205 9.21406V12.8726L14.4999 17.7507L10.7059 15.8536C10.2994 15.6504 9.75738 15.7859 9.55413 16.2601C9.35088 16.6666 9.48638 17.2087 9.96063 17.4119L13.6869 19.3089V30.8943L9.96063 32.7913C9.41863 32.8591 9.28313 33.4011 9.48638 33.8076C9.62188 34.0786 9.96063 34.2818 10.2316 34.2818C10.3671 34.2818 10.5026 34.2818 10.6381 34.2141L14.4322 32.3171L24.1205 37.1274V40.7859C24.1205 41.2602 24.5271 41.6667 25.0013 41.6667C25.4756 41.6667 25.8821 41.2602 25.8821 40.7859V37.1274L31.0311 34.8916C31.4376 34.6883 31.6409 34.2141 31.5054 33.7398C31.3021 33.3333 30.8279 33.1301 30.3536 33.2656L25.0013 35.6369L15.3129 30.7588V19.2412L25.0013 14.3631L34.6897 19.1734V26.0163C34.6897 26.4905 35.0962 26.897 35.5704 26.897C36.0447 26.897 36.4512 26.4905 36.4512 26.0163V19.2412L40.1775 17.3442C40.584 17.1409 40.7195 16.5989 40.5162 16.1924V16.1924Z" fill="#2A7AE4"/>
<path d="M19.4457 21.0028V29.5394C19.4457 30.9622 22.359 31.5719 25.0013 31.5719C27.7113 31.5719 30.5568 30.8944 30.5568 29.5394V21.0028C30.5568 19.5801 27.6436 18.9703 25.0013 18.9703C22.2912 18.9026 19.4457 19.5801 19.4457 21.0028V21.0028ZM29.5406 25.2711C29.4728 25.6099 27.8468 26.2874 25.0013 26.2874C22.1557 26.2874 20.5297 25.5421 20.462 25.2711V22.2901C21.546 22.8321 23.3075 23.1031 25.0013 23.1031C26.695 23.1031 28.4566 22.8321 29.5406 22.2901V25.2711ZM29.5406 21.0028C29.4728 21.3416 27.8468 22.0191 25.0013 22.0191C22.1557 22.0191 20.5297 21.2738 20.462 21.0028C20.5297 20.6641 22.1557 19.9866 25.0013 19.9866C27.8468 19.9188 29.4728 20.6641 29.5406 21.0028Z" fill="#2A7AE4"/>
<path d="M25 47.2222C12.727 47.2222 2.77778 37.273 2.77778 25H-2.77778C-2.77778 40.3412 9.65876 52.7778 25 52.7778V47.2222ZM47.2222 25C47.2222 37.273 37.273 47.2222 25 47.2222V52.7778C40.3412 52.7778 52.7778 40.3412 52.7778 25H47.2222ZM25 2.77778C37.273 2.77778 47.2222 12.727 47.2222 25H52.7778C52.7778 9.65876 40.3412 -2.77778 25 -2.77778V2.77778ZM25 -2.77778C9.65876 -2.77778 -2.77778 9.65876 -2.77778 25H2.77778C2.77778 12.727 12.727 2.77778 25 2.77778V-2.77778Z" fill="#2A7AE4"/>
</svg>

<svg xmlns="http://www.w3.org/2000/svg" fill="none" viewBox="0 0 50 50"><path fill="#2A7AE4" d="M40.516 16.192c-.203-.406-.745-.61-1.151-.406l-3.795 1.897-9.688-4.81V9.214a.897.897 0 00-.88-.88.897.897 0 00-.881.88v3.659L14.5 17.75l-3.794-1.897c-.407-.204-.949-.068-1.152.406-.203.407-.068.949.407 1.152l3.726 1.897v11.585L9.96 32.791c-.542.068-.678.61-.475 1.017.136.27.475.474.746.474.135 0 .27 0 .406-.068l3.794-1.897 9.688 4.81v3.659c0 .474.407.88.881.88a.896.896 0 00.881-.88v-3.659l5.15-2.235c.406-.204.609-.678.473-1.152-.203-.407-.677-.61-1.151-.474L25 35.636l-9.688-4.877V19.24L25 14.363l9.689 4.81v6.843c0 .475.406.881.88.881a.896.896 0 00.881-.88V19.24l3.727-1.897c.406-.203.541-.745.338-1.152z"/><path fill="#2A7AE4" d="M19.446 21.003v8.536c0 1.423 2.913 2.033 5.555 2.033 2.71 0 5.556-.678 5.556-2.033v-8.536c0-1.423-2.913-2.033-5.556-2.033-2.71-.067-5.555.61-5.555 2.033zM29.54 25.27c-.068.339-1.694 1.016-4.54 1.016-2.845 0-4.471-.745-4.539-1.016v-2.98c1.084.541 2.846.812 4.54.812 1.693 0 3.455-.27 4.539-.813v2.981zm0-4.268c-.068.339-1.694 1.016-4.54 1.016-2.845 0-4.471-.745-4.539-1.016.068-.339 1.694-1.016 4.54-1.016 2.845-.068 4.47.677 4.539 1.016zM25 47.222C12.727 47.222 2.778 37.273 2.778 25h-5.556C-2.778 40.341 9.66 52.778 25 52.778v-5.556zM47.222 25c0 12.273-9.949 22.222-22.222 22.222v5.556c15.341 0 27.778-12.437 27.778-27.778h-5.556zM25 2.778c12.273 0 22.222 9.949 22.222 22.222h5.556C52.778 9.659 40.34-2.778 25-2.778v5.556zm0-5.556C9.659-2.778-2.778 9.66-2.778 25h5.556C2.778 12.727 12.727 2.778 25 2.778v-5.556z"/></svg>
